X:12
T:La jolie fille de Parthenay
R:chanson
S:Le Parler Poitevin - Emilien Traver
N:p. 91
O:France
A:Poitou
Z:<anamnese@laposte.net>
M:6/8
L:1/8
Q:1/4=135
K:G
G G G A3 | G G G D3 | G G G A2 A | (G2 F) G2 z | B B B B3 | B B A Hd2 z |!
B B B B2 A | d d d HD2 z || B B B A2 A | E F D G2 G | B B B A2 A | E F D G2 z |]
